X:1
T:O Jesus, Jesus
T:O Jesus, Jesus
T:Arr. from Taubert by R. Kelso Carter, 1886 
T:Frederick William Faber (1814-1863)
T:Public Domain Courtesy of the Cyber Hymnal™
T:Public Domain Courtesy of the Cyber Hymnal™
C:Arr. from Taubert by R. Kelso Carter, 1886
Z:Public Domain
Z:Courtesy of the Cyber Hymnal™
%%score ( 1 2 ) ( 3 4 )
L:1/8
M:6/8
K:C
V:1 treble 
V:2 treble 
V:3 bass 
V:4 bass 
V:1
 [CE] | [CE]2 [CE] [CE]2 [CE] | [EG]2 [EG] [Gc]2 G | [FA]2 F (FG)[FA] | [EG]3- [EG]2 [EG] | %5
w: 1.~O|Je- sus, Je- sus,|dear- est Lord! For-|give me if * I|say, * For|
w: 2.~I|love Thee so I|know not how My|trans- ports to * con-|trol; * Thy|
w: 3.~For|Thou to me art|all in all; My|hon- or and * my|wealth; * My|
w: 4.~Burn,|burn, O love, with-|in my heart, Burn|fierce- ly night * and|day, * Till|
w: 5.~O|light in dark- ness,|joy in grief, O|heav’n be- gun * on|earth; * Je-|
w: 6.~What|lim- it is there|to this love? Thy|flight, where wilt * Thou|stay? * On,|
 [DG]2 [B,D] ([B,D][CE])[DF] | [CE]2 C [EG]2 [EG] | [DG]2 [B,D] ([B,D][CE])[DF] | [CE]3- [CE]2 || %9
w: ver- y love, * Thy|sac- red name A|thou- sand times * a|day. *|
w: love is like * a|burn- ing fire With-|in my ver- * y|soul. *|
w: heart’s de- sire, * my|bod- y’s strength, My|soul’s e- tern- * al|health. *|
w: all the dross * of|earth- ly loves Is|burned, and burned * a-|way. *|
w: sus, my love, * my|trea- sure, who Can|tell what Thou * art|worth? *|
w: on! our Lord * is|sweet- er far To-|day than yes- * ter-|day. *|
"^Refrain" [EG] | [_EA]2 [EA] [EA]2 [EA] | [E^G]2 [EA] [EB]2 E | [Ec]2 [Ec] [^Fc]2 [Fc] | %13
w: ||||
w: ||||
w: ||||
w: O|Jes- us, Lord, with|me a- bide; I|rest in Thee, what-|
w: ||||
w: ||||
 [GB]2 [Gc] [Fd]2 [FG] | [Ee]2 [Fd] [Ec]2 [GB] | [Bd]2 [Ac] [FA]2 [FA] | %16
w: |||
w: |||
w: |||
w: e’er be- tide; Thy|gra- cious smile is|my re- ward; I|
w: |||
w: |||
"^riten." [CG]2 [EG] (GF)[B,D] | C3 z2 |] %18
w: ||
w: ||
w: ||
w: love, I love * Thee,|Lord!|
w: ||
w: ||
V:2
 x | x6 | x5 G | x2 F F2 x | x6 | x6 | x2 C x3 | x6 | x5 || x | x6 | x5 E | x6 | x6 | x6 | x6 | %16
 x3 D2 x | C3 x2 |] %18
V:3
 [C,G,] | [C,G,]2 [C,G,] [C,G,]2 [C,G,] | [C,C]2 [C,C] [E,C]2 [E,C] | [F,C]2 [F,A,] (A,B,)[F,C] | %4
 [C,C]3- [C,C]2 [C,C] | [G,B,]2 G, G,2 G, | [C,G,]2 [C,E,] [C,C]2 [C,C] | [G,B,]2 G, G,2 G, | %8
 [C,-G,]3 [C,C]2 || [C,C] | [F,C]2 [F,A,] [F,C]2 [F,A,] | [E,B,]2 [E,C] [E,D]2 [E,^G,] | %12
 [A,,A,]2 [A,,A,] [D,A,]2 [D,A,] | G,2 [G,A,] [G,B,]2 [G,B,] | [C,C]2 [C,B,] [C,C]2 [E,C] | %15
 [F,C]2 [F,C] [F,C]2 [F,A,] | [E,G,]2 [C,C] [G,B,]2 [G,,F,] | [C,E,]3 z2 |] %18
V:4
 x | x6 | x6 | x3 F,2 x | x6 | x2 G, G,2 G, | x6 | x2 G, G,2 G, | x5 || x | x6 | x6 | x6 | G,2 x4 | %14
 x6 | x6 | x6 | x5 |] %18

